public/avatar/hat/161.svg

<svg xmlns:xlink="http://www.w3.org/1999/xlink" height="92.9" width="100.7" xmlns="http://www.w3.org/2000/svg"><use height="12.1" transform="translate(25.6 47.05)" width="25.8" xlink:href="#a"/><defs><g id="a"><path d="m-7.25 3.05-.3-.15-.75-.2h-.05q-.6-.1-1 .4-.45.4-.25 1.55l.2.75h-.05l-.2.15-.85-.8q-.4-1.7.4-2.4.75-.75 1.85-.65h.15l.45.15.7 1.15-.3.05m1.9-3.15h-.05q-.45.25-.45.75v.1l.35.95.1.4-.2.3-.35.1-.35-.2Q-7 1.35-6.85.6q-.05-1 .95-1.55l2.65.05.5 1.2v.85l-.2-.45-.5-.45q-.9-1.05-1.9-.35m17.3 8.85V8.7l-.1.05v-.2l.2-.25.1-.75-.15-.7-1.45-.2q.5-.8.85-.6 1 0 1.25.9.25.85-.2 1.35l-.5.45m-1.3-3.65-.2.2-.7.15H9.7l-.2-.3V4.8q.1-.2.3-.25l.05-.15q.15-1.15-.2-1.65L9.6 2.7q-.4-.5-2.5.3.7-1.6 1.2-1.5 1.35-.4 2.15.7.65.7.4 2.35v.05l-.2.5M1.3-1.35.05-1.7q-.55.25-1.15.45-.4.45-.4 1.4l-.15.35-.1.3q-.8-2.05-.15-2.75.65-.75 1.95-.75 1.3 0 1.95.7.7.6.15 2.45L1.8.3l-.15-.35q0-.85-.35-1.3m3 1.25h-.05L3.7 1h-.35q-.05-1.55.2-1.75V-.8Q4.8-2.3 6.6-1.3q.95.55 1 1.65.05 1.05-1.15 2.1l.05-.3L6.65.4V.35l-.5-.75H6.1Q5-1 4.3-.1m-16.55 8.75-.45-.45q-.5-.5-.25-1.35.25-.9 1.25-.9 1.85.95.65.8-1.2-.15-1.25 0l-.15.7.1.75.2.25.2.25-.3-.1v.05" fill-rule="evenodd" transform="translate(13.05 2.7)"/><path d="m1.15-1.15.05.05.15.25v.1L.25 5.9v-.05l-.05.2L-1.2.3l-.05-1.6q.2-.35.7-.4l.5-.05q.95 0 1.2.6m-2.7.35L-1.5.8l-.3-1.1.2-.45.05-.05m-1.7 5.45-.45-.55-1.65-2.3Q-6.05.95-5.5.4l.2-.2q.85-.55 1.65.2l1.25 5.4-.85-1.15m-5.6-1.6.95-.1 2.7 3.3-4.05-1.45-.1-1.1.5-.65M8.1 2.8l.95.05.45.6.1.65.1-.05v.05l.05.05v.05l.05.05.15.1-.05.2-.05.05-.65.1-3.65 1.6L8.1 2.8M6.15 1.5l-2.7 4.25.9-5.5q.7-.8 1.6-.3l.2.2q.6.45 0 1.35" fill="#592d00" fill-rule="evenodd" transform="translate(13.05 2.7)"/><path d="m9.35 6.8.45.55" fill="none" stroke="#422100" stroke-linecap="round" stroke-linejoin="round" stroke-width=".25"/><path d="m-7.45 2.5 2.85 4.15h-.05l-4.9-1.15-.25-.2-.2-.3q-.35-1.45.2-2.1.5-.8 1.9-.65l.45.25m1.9 3.55L-8.1 3.2q-1.2.25-1.15 1.45l3.7 1.4m2.4-6.15.15.3 1 6.15.05.25-3.95-4.35Q-6.45 1.5-6.35.9q-.05-.75.7-1.2 1.35-.9 2.5.2m-.55.85q-1.5-1.05-1.7.8l2.75 3.7L-3.7.75m-1.85.6.1.1.05.1-.05-.1-.1-.1m5.2-2.1L-1-.3.35 5.25 1.3-.4Q.35-1.25-.35-.75M2.1-.9l.05.3-1.8 7.5H.3L-1.95-.3v-.1Q-2.1-2-.1-2.2q1.75-.25 2.2 1.3m7.5 5.3q-.1-1.2-1.25-1.35L6 6.1l3.6-1.7m.75.3-.15.35-.25.2-4.8 1.55-.05-.05 2.5-4.3q.15-.3.45-.35 1.4-.25 1.95.55.55.6.35 2.05M4.45.65l-.7 4.55L6.4 1.05l-.15.2q-.4-1.8-1.8-.6M3.9-.2q1-1.2 2.45-.4.75.4.8 1.15.1.55-.4 1.4L3.15 6.6v-.25L3.7.15l.2-.35" fill="#592d00" fill-rule="evenodd" transform="translate(13.05 2.7)"/><path d="M.65 5.75H.6l.05-.05v.05M-5.4.9l.3.25 2.9 4.9-3.7-4.35-.1-.4.25-.3.35-.1m-4.15 3.3h.35q1.6.7 3.7 2.15L-9.6 5.1l-.25-.25v-.4l.3-.25m8-5.2.1-.35.35-.25.35.1.2.35.75 6.9v.45L-1.55-1" fill="#c60" fill-rule="evenodd" transform="translate(13.05 2.7)"/><path d="m-8.35 9.4-3.75-.75-.15-.15-.2-.2q-.35-1 .05-1.5.3-.55 1.35-.45.2 0 .35.2l2.4 2.85h-.05" fill="#592d00" fill-rule="evenodd" transform="translate(13.05 2.7)"/><path d="M-12.2 7.75h.3q1.2.5 2.9 1.45l-3.1-.8-.25-.2v-.3l.15-.15" fill="#c60" fill-rule="evenodd" transform="translate(13.05 2.7)"/><path d="m8.3 9.4 3.75-.75.15-.15.2-.2q.35-1-.05-1.5-.3-.55-1.35-.45-.2 0-.35.2L8.25 9.4h.05" fill="#592d00" fill-rule="evenodd" transform="translate(13.05 2.7)"/><path d="M12.15 7.75h-.3L8.95 9.2l3.1-.8.25-.2v-.3l-.15-.15" fill="#c60" fill-rule="evenodd" transform="translate(13.05 2.7)"/></g></defs></svg>

<?xml version="1.0" encoding="UTF-8" standalone="no"?>
<svg xmlns:xlink="http://www.w3.org/1999/xlink" height="92.9px" width="100.7px" xmlns="http://www.w3.org/2000/svg">
  <g transform="matrix(1.0, 0.0, 0.0, 1.0, 38.65, 49.75)">
    <use height="12.1" transform="matrix(1.0, 0.0, 0.0, 1.0, -13.05, -2.7)" width="25.8" xlink:href="#shape0"/>
  </g>
  <defs>
    <g id="shape0" transform="matrix(1.0, 0.0, 0.0, 1.0, 13.05, 2.7)">
      <path d="M-7.25 3.05 L-7.55 2.9 -8.3 2.7 -8.35 2.7 Q-8.95 2.6 -9.35 3.1 -9.8 3.5 -9.6 4.65 L-9.4 5.4 -9.45 5.4 -9.65 5.55 -10.5 4.75 Q-10.9 3.05 -10.1 2.35 -9.35 1.6 -8.25 1.7 L-8.1 1.7 -7.65 1.85 -6.95 3.0 -7.25 3.05 M-5.35 -0.1 L-5.4 -0.1 Q-5.85 0.15 -5.85 0.65 L-5.85 0.75 -5.5 1.7 -5.4 2.1 -5.6 2.4 -5.95 2.5 -6.3 2.3 Q-7.0 1.35 -6.85 0.6 -6.9 -0.4 -5.9 -0.95 L-3.25 -0.9 -2.75 0.3 -2.75 0.95 -2.75 1.1 -2.75 1.15 -2.95 0.7 -3.45 0.25 Q-4.35 -0.8 -5.35 -0.1 M11.95 8.75 L11.95 8.7 11.85 8.75 11.85 8.55 12.05 8.3 12.15 7.55 12.0 6.85 10.55 6.65 Q11.05 5.85 11.4 6.05 12.4 6.05 12.65 6.95 12.9 7.8 12.45 8.3 L11.95 8.75 M10.65 5.1 L10.45 5.3 9.75 5.45 9.7 5.45 9.5 5.15 9.5 4.8 Q9.6 4.6 9.8 4.55 L9.85 4.4 Q10.0 3.25 9.65 2.75 L9.6 2.7 Q9.2 2.2 7.1 3.0 7.8 1.4 8.3 1.5 9.65 1.1 10.45 2.2 11.1 2.9 10.85 4.55 L10.85 4.6 10.65 5.1 M1.3 -1.35 L0.05 -1.7 Q-0.5 -1.45 -1.1 -1.25 -1.5 -0.8 -1.5 0.15 L-1.65 0.5 -1.75 0.8 Q-2.55 -1.25 -1.9 -1.95 -1.25 -2.7 0.05 -2.7 1.35 -2.7 2.0 -2.0 2.7 -1.4 2.15 0.45 L1.8 0.3 1.65 -0.05 Q1.65 -0.9 1.3 -1.35 M4.3 -0.1 L4.25 -0.1 3.7 1.0 3.35 1.0 Q3.3 -0.55 3.55 -0.75 L3.55 -0.8 Q4.8 -2.3 6.6 -1.3 7.55 -0.75 7.6 0.35 7.65 1.4 6.45 2.45 L6.5 2.15 6.65 0.4 6.65 0.35 6.15 -0.4 6.1 -0.4 Q5.0 -1.0 4.3 -0.1 M-12.25 8.65 L-12.7 8.2 Q-13.2 7.7 -12.95 6.85 -12.7 5.95 -11.7 5.95 -9.85 6.9 -11.05 6.75 -12.25 6.6 -12.3 6.75 L-12.45 7.45 -12.35 8.2 -12.15 8.45 -11.95 8.7 -12.25 8.6 -12.25 8.65" fill="#000000" fill-rule="evenodd" stroke="none"/>
      <path d="M1.15 -1.15 L1.2 -1.1 1.35 -0.85 1.35 -0.75 0.25 5.9 0.25 5.85 0.2 6.05 -1.2 0.3 -1.25 -1.3 Q-1.05 -1.65 -0.55 -1.7 L-0.05 -1.75 Q0.9 -1.75 1.15 -1.15 M-1.55 -0.8 L-1.5 0.8 -1.8 -0.3 -1.6 -0.75 -1.55 -0.8 M-3.25 4.65 L-3.7 4.1 -5.35 1.8 Q-6.05 0.95 -5.5 0.4 L-5.3 0.2 Q-4.45 -0.35 -3.65 0.4 L-2.4 5.8 -3.25 4.65 M-8.85 3.05 L-7.9 2.95 -5.2 6.25 -9.25 4.8 -9.35 3.7 -8.85 3.05 M8.1 2.8 L9.05 2.85 9.5 3.45 9.6 4.1 9.7 4.05 9.7 4.1 9.75 4.15 9.75 4.2 9.8 4.25 9.95 4.35 9.9 4.55 9.85 4.6 9.2 4.7 5.55 6.3 8.1 2.8 M6.15 1.5 L3.45 5.75 4.35 0.25 Q5.05 -0.55 5.95 -0.05 L6.15 0.15 Q6.75 0.6 6.15 1.5" fill="#592d00" fill-rule="evenodd" stroke="none"/>
      <path d="M-3.7 4.1 L-3.25 4.65" fill="none" stroke="#422100" stroke-linecap="round" stroke-linejoin="round" stroke-width="0.25"/>
      <path d="M-7.45 2.5 L-4.6 6.65 -4.65 6.65 -9.55 5.5 -9.8 5.3 -10.0 5.0 Q-10.35 3.55 -9.8 2.9 -9.3 2.1 -7.9 2.25 L-7.45 2.5 M-5.55 6.05 L-8.1 3.2 Q-9.3 3.45 -9.25 4.65 L-5.55 6.05" fill="#592d00" fill-rule="evenodd" stroke="none"/>
      <path d="M-3.15 -0.1 L-3.0 0.2 -2.0 6.35 -1.95 6.6 -5.9 2.25 Q-6.45 1.5 -6.35 0.9 -6.4 0.15 -5.65 -0.3 -4.3 -1.2 -3.15 -0.1 M-3.7 0.75 Q-5.2 -0.3 -5.4 1.55 L-2.65 5.25 -3.7 0.75 M-5.55 1.35 L-5.45 1.45 -5.4 1.55 -5.45 1.45 -5.55 1.35" fill="#592d00" fill-rule="evenodd" stroke="none"/>
      <path d="M-0.35 -0.75 L-1.0 -0.3 0.35 5.25 1.3 -0.4 Q0.35 -1.25 -0.35 -0.75 M2.1 -0.9 L2.15 -0.6 0.35 6.9 0.3 6.9 -1.95 -0.3 -1.95 -0.4 Q-2.1 -2.0 -0.1 -2.2 1.65 -2.45 2.1 -0.9" fill="#592d00" fill-rule="evenodd" stroke="none"/>
      <path d="M9.6 4.4 Q9.5 3.2 8.35 3.05 L6.0 6.1 9.6 4.4 M10.35 4.7 L10.2 5.05 9.95 5.25 5.15 6.8 5.1 6.75 7.6 2.45 Q7.75 2.15 8.05 2.1 9.45 1.85 10.0 2.65 10.55 3.25 10.35 4.7" fill="#592d00" fill-rule="evenodd" stroke="none"/>
      <path d="M4.45 0.65 L3.75 5.2 6.4 1.05 6.25 1.25 Q5.85 -0.55 4.45 0.65 M3.9 -0.2 Q4.9 -1.4 6.35 -0.6 7.1 -0.2 7.15 0.55 7.25 1.1 6.75 1.95 L3.15 6.6 3.15 6.35 3.7 0.15 3.9 -0.2" fill="#592d00" fill-rule="evenodd" stroke="none"/>
      <path d="M0.65 5.75 L0.6 5.75 0.65 5.7 0.65 5.75 M-5.4 0.9 L-5.1 1.15 -2.2 6.05 -5.9 1.7 -6.0 1.3 -5.75 1.0 -5.4 0.9 M-9.55 4.2 L-9.2 4.2 Q-7.6 4.9 -5.5 6.35 L-9.6 5.1 -9.85 4.85 -9.85 4.45 -9.55 4.2 M-1.55 -1.0 L-1.45 -1.35 -1.1 -1.6 -0.75 -1.5 -0.55 -1.15 0.2 5.75 0.2 6.2 -1.55 -1.0" fill="#cc6600" fill-rule="evenodd" stroke="none"/>
      <path d="M-8.35 9.4 L-12.1 8.65 -12.25 8.5 -12.45 8.3 Q-12.8 7.3 -12.4 6.8 -12.1 6.25 -11.05 6.35 -10.85 6.35 -10.7 6.55 L-8.3 9.4 -8.35 9.4" fill="#592d00" fill-rule="evenodd" stroke="none"/>
      <path d="M-12.2 7.75 L-11.9 7.75 Q-10.7 8.25 -9.0 9.2 L-12.1 8.4 -12.35 8.2 -12.35 7.9 -12.2 7.75" fill="#cc6600" fill-rule="evenodd" stroke="none"/>
      <path d="M8.3 9.4 L12.05 8.65 12.2 8.5 12.4 8.3 Q12.75 7.3 12.35 6.8 12.05 6.25 11.0 6.35 10.8 6.35 10.65 6.55 L8.25 9.4 8.3 9.4" fill="#592d00" fill-rule="evenodd" stroke="none"/>
      <path d="M12.15 7.75 L11.85 7.75 8.95 9.2 12.05 8.4 12.3 8.2 12.3 7.9 12.15 7.75" fill="#cc6600" fill-rule="evenodd" stroke="none"/>
    </g>
  </defs>
</svg>
